X: 24288
T: Lost In Quimper
R: waltz
M: 3/4
K: Dminor
D>E|:F2 D>E F>G|A>^G A>B A>G|A>f e>d c>B|A>c B>A G>F|
E2 A,>B, A,>B,|A,>^C E>G B>A|G>B A>G F>E|e>^c A>G F>E|
F2 D>E F>G|A>^G A>B A>G|A>f e>d c>A|a3b ^c>e y!coda! "when finishing"|
g>A f>A e>A|d>_d c>_c B>A|G>F E>A, ^C>E|1 D4 D>E:|2 D4 B2||
|:A>d f>a g>e|d>^c d3=c/B/|A>d f>g a>f|b>a g2g>f|
e>^c A>c e>g|b>A a>A g>A|a>b a>g e>g|f>e d>A F>E|
D>F A>d f>e|d>A F>E D>^C|(3DFA (3d^cd (3B=cd|B>A G2G>F|
E>F G>A B>d|F>G A>^c d>e|(3fed (3Adf a2|1 d4 B2:|2 d4 b2||
|:a2 d2 a2|f3e d2|a2 d2 a2|f3e d2|
g2 ^c2 g2|e2 f2 g2|1 a2 e2 ^c2|B4 A2 ]|2 a2 e2 B2|B4 A2]|
a2 d2 a2|f3e d2|a2 d2 a2|f3e d2|
B2 e2 f2|g2 e2 a2|1 ^c2 e2 c2|d4 b2:|2 d2 e2 ^c2|d4||
!coda!|:g>A f>A e>A|d>_d c>_c B>A:|d>_d c>_c B>A|_A>G _G>F E>_E|
D>A, ^A,>=B, C>^C|z2 D4||

